X:1
T:Etude No 3
T:Etude No 5
T:Giulio Regondi (tabbed by Classical Guitar Empire)
C:Giulio Regondi (tabbed by Classical Guitar Empire)
%%score { ( 1 2 5 7 ) | ( 3 4 6 8 ) }
L:1/8
Q:1/4=116
M:2/4
K:A
V:1 treble-8 nm="Guitar" snm="Guit."
V:2 treble-8 
V:5 treble-8 
V:7 treble-8 
V:3 tab stafflines=6 strings=E2,A2,D3,G3,B3,E4 nostems 
V:4 tab stafflines=6 strings=E2,A2,D3,G3,B3,E4 nostems 
V:6 tab stafflines=6 strings=E2,A2,D3,G3,B3,E4 nostems 
V:8 tab stafflines=6 strings=E2,A2,D3,G3,B3,E4 nostems 
V:1
"^Allegretto" !1!A/!0!B/!1!c/!2!d/ !0!e/!1!f/!3!g/!4!a/ | !4!g2 !3!f2 | !0!e(!3!c !0!B)!3!A | %3
 !3!c2 !0!B2 | A/B/c/d/ e/f/g/a/ | g2 f2 | !0!e!3!c({!1!^B(!3!c)!4!d)} c>=B | B2 !1!A z | %8
 (!1!E/!4!F/)!1!G/!1!A/ !0!B/!1!c/!2!d/!0!e/ | !4!d2 !4!c2 | %10
 !1!G/!3!A/!0!B/!3!c/ !4!d/!0!e/!1!f/!3!g/ | !2!f2 !0!e2 | %12
 (!3!!2!!4![F^dc']/!1!b/)!4!a/!3!g/{!1!x!3!x} T!1!f/!0!e/(!3!d/!1!c/) | !0!B2 !0!e2 | !1!F2 B2 | %15
 !1!E2- E/!2!^E/!3!F/!1!G/ | A/B/c/d/ e/f/g/a/ | g2 f2 | ec({!4!d!3!c)} BA | c2 B2 | %20
 A/B/c/d/ e/f/!2!=g/!4!a/ | (!1!^e/!2!f/)!4!^g/f/ !1!e/!3!d/{!2!x!3!x}T!2!c/!0!B/ | %22
 !2!A2 (!3!c>B) | B2 A2 | !0!B/!2!^A/(!1!c/!0!B/) (!2!=A/!1!G/)!4!F/!2!E/ | !2!c2 !2!A2 | %26
"^II" (!2!d/!1!c/)!4!e/!2!d/{!1!x!2!x} T!1!c/!0!B/!2!A/!1!G/ | !0!e2 !2!c2 | %28
"^VII" (!3!c'/!2!^b/)!4!^d'/!3!c'/ (!4!=b/!2!a/)!1!g/!4!f/ | %29
"^VI" (!2!b/!1!^a/)!4!c'/!2!b/"^IV" (!2!=a/!1!g/)!4!f/!2!e/ | %30
 !1!^d/(!4!f/!2!e/)!3!c/ (!1!B/!4!c/)!4!A/!1!F/ | !3!F2 !2!E2 | %32
!p! !1!F/!3!G/!4!A/!1!B/ !2!c/!4!d/!1!e/!4!f/ |!mp! !1!G/!3!A/!0!B/!3!c/ !4!d/!0!e/!1!f/!3!g/ | %34
!mf! A/B/c/d/ e/f/g/a/ |!f! !0!B/!1!c/!2!d/!0!e/ !3!f/!1!g/!2!a/!4!b/ | %36
!ff! !3!c/!4!d/!1!e/!3!f/ !1!g/!2!a/!4!b/!1!c'/ | %37
!fff!"^VII" (!4!d'/!3!c'/)!1!b/!3!c'/ (!4!d'/!3!c'/)!4!d'/!3!c'/ | %38
 (!4!d'/!3!c'/)!1!b/!3!c'/ (!4!d'/!3!c'/)!1!b/!3!c'/ | %39
 (!4!d'/!3!c'/)!2!b/!3!c'/!ff! (!4!b/!2!a/)!1!g/!2!a/ | %40
!f!"^II" (!4!g/!1!f/)!4!^e/!1!f/!mf! !0!=e/!2!d/(!1!c/!2!d/) | %41
 !1!c/(!4!a/!3!g/)!1!f/"^IV" !2!e/!1!^d/(!4!f/!2!e/) | %42
"^VII" z/ (!4!d'/!1!b/)!3!g/ (!0!e/!1!f/)!0!B/!0!e/ | c/(a/g/)f/"^IV" e/^d/(f/e/) | %44
"^VII" z/ (d'/b/)g/ (e/f/)B/e/ | !1!c/!f!(!4!c'/!3!b/)!1!a/"^IV" (!1!g/!2!a/)!4!b/!2!a/ | %46
"^loco" (!3!g/!1!f/)!4!a/!3!g/"^IV" (!4!b/!2!a/)!1!g/!4!f/ | %47
!ff!{!2!x!4!x} T!2!e/!1!^d/!2!e/!3!^e/ (!3!g/!1!f/)!0!=e/!2!=d/ | %48
!f! (!1!^B/!3!c/)!0!e/!3!c/!mf! (!2!^A/!3!=B/)!2!d/!0!B/ | A/(a/g/)f/"^IV" e/^d/(f/e/) | %50
"^VII" z/ (d'/b/)g/ (e/f/)B/e/ | c/(a/g/)f/"^IV" e/^d/(f/e/) |"^VII" z/ (d'/b/)g/ (e/f/)B/e/ | %53
 !3!c/(!1!G/!2!A/)!0!B/ !2!c/!3!d/!0!e/!2!f/ |!f! !2!=g/(!1!f/!0!e/)!2!d/ (!1!c/!0!B/)!1!A/!0!=G/ | %55
"^II"!p! !3!F/!1!A/(!2!d/!1!c/) !0!B/!0!=G/!3!F/!4!^d/ | %56
!mp! !0!e/!0!B/!1!E/!2!=d/ !1!c/!1!A/"^I"!1!G/!1!^e/ | %57
!mf! !3!f/!2!c/!4!F/!0!e/ (!3!d/!0!B/)"^II"!1!A/!1!f/ | %58
!f! !4!=g/!3!d/"^IV"!1!B/!1!^g/ !4!a/!3!e/"^VI"!1!c/!1!^a/ | %59
!ff! !4!b/!3!f/!1!e/!4!c'/ !4!d'/!3!a/!1!f/!4!^d'/ | %60
!fff! !4!e'/!1!e/!4!b/!2!d'/{!1!x!2!x} T!1!c'/!4!b/!1!c'/!2!a/ | %61
!ff! !4!d'/!1!d/!4!a/!2!=c'/{!1!x!2!x} T!1!b/!4!a/!1!b/!3!=g/ | %62
!f! !4!=c'/!1!=c/"^III"!1!=g/!4!_b/{!3!x!4!x} T!3!a/!1!g/!1!a/!3!=f/ | %63
!mf! !3!_b/!2!=f/!1!^g/!2!e/ !4!a/!3!e/!1!^f/!3!d/ | %64
!mp! !4!=g/!3!d/!1!^e/!3!c/ !3!f/!2!c/!4!^d/!0!B/ | %65
!mf! !0!e/!0!B/!1!E/!3!d/ !2!c/!1!A/!1!f/!4!!3![=c^d]/ | e/B/E/d/ c/A/c/!0!e/ | %67
 !2!=g/!0!e/!1!A/!3!g/ !2!f/!1!d/!1!b/!4!!3![=f^g]/ | %68
 (!3!a/!0!e/)!1!A/!3!=g/ !1!f/!2!d/!1!C/!0![=Ge]/ | %69
 z/ !3!!4![F^d]/ z/ !1![=F=d]/ z/ !1![Ec]/ z/ !2!!0![^FB]/ | %70
 !2!A/!1!E/(!2!c/!0!B/)"^II" !1!A/!1!c/!1!f/!4!^d/ | !0!e/!1!c/(!4!a/!1!f/) !0!e/!2!a/!1!c'/!4!b/ | %72
 !2!a/!1!c'/!4!f'/!1!^d'/ !2!e'/!1!c'/!4!a'/!1!a/ | %73
!f! !2!c'/!1!g/{!1!x!3!x}T!1![db]/!3!g/ !4!^a/!3!g/!1![db]/!3!g/ | %74
!ff! !4!c'/!3!g/!1![db]/!3!g/!fff! !4!d'>!4!c' |"^V"!mf! !1!a>!1!a"^III" !3!g>!1!=g | %76
"^II" !1!f3/2{!1!x!4!x}T!1!f/ !0!e>!4!d | !3!c/c/!0!e/{!3!x!4!x}T!3!a/"^III" !3!g>!3!g | %78
"^II" f>f e>d | !3!c/!0!e/!2!A/!0!B/ !3!c/e/!1!a/!3!b/ | %80
 !4!c'/!3!b/!4!a/!1!f/ (!4!e/!1!c/)!0!B/!1!A/ |!f! !3!f2 !4!d'2 |!ff! !3!g2!fff! !2!e'2 | %83
!mf! !4!a2 !0!e2 |[Q:1/4=106]!mp! a2[Q:1/4=96] e2 |!p![Q:1/4=76] a4[Q:1/4=66] | %86
[Q:1/4=56] a4[Q:1/4=46] |!pp! a4- | a2 !fermata!z2 |] %89
V:2
 !3!C2 !0!A,2 | z !1!!2![B,Ed] z !0!!1![DGB] | z !0!!2![A,E] z !2!!1![F,^D] | %3
 z !1!!2![E,EA] z !2!!1![EG] | C2 A,2 | z [B,Ed] z [DGB] | z !2![A,E] z !0!!1![E,DG] | %7
 z !1![A,DG] !3!CA, | !3!G,2 E,2 | z !2!!1![E,EG] z !2!!3![A,EA] | !2!B,2 E,2 | %11
 z !1!!4![A,Gd] z !1!!2![A,Ac] | x4 | z !2!!1![EG] z !1!!0![C=GB] | z !3!!4![B,E] z !0!!1![A,^D] | %15
 z !4!!0![G,Be] E,2 | C2 A,2 | z [B,Ed] z [DGB] | z [A,E] z [F,^D] | z [E,EA] z [EG] | C2 A,2 | %21
 D2 !4!F!0!D | z !4!!1![E,CE] z !1![E,DG] | z [A,DG] CA, | !3!G,2 E,2 | %25
 z !0!!1![A,E] z !4!!1![CE] | !1!B,2 !0!D2 | z !4!!1![CA] z !0!!1![A,E] | !1!A z c2 | !1!G2 !1!B2 | %30
 !1!F2 !3!^D2 | z !1!!4![E,A^d] z !1!!0![E,Ge] | !2!D2 !3!B,2 | !2!E2 !0!D2 | C2 A,2 | !3!G,2 E,2 | %36
 !0!A,2 E,2 | !1!E2 !1!^E2 | !2!F2 !0!^^F2 | !1!G2 E,2 | !1!F,2 !3!G,2 | A,2 !1!C2 | !1!B,2 E,2 | %43
 A,2 C2 | B,2 E,2 | A,2 !1!C2 | !0!D2 !1!F2 | !1!C2 !0!D2 | !2!E2 E,2 | A,2 C2 | B,2 E,2 | A,2 C2 | %52
 B,2 E,2 | !0!A,2 !1!E2 | !3!C2 !0!A,2 | !4!D!1!F, !2!=G,!0!A, | !2!=G,!3!^G, !0!A,!2!B, | %57
 !0!A,!1!^A, !1!B,!2!=C | !1!B,!2!D !1!C!2!E | !1!D!1!=G !2!F!1!A | !2!GE, !0!A,!0!=G | %61
 !3!F!0!D !0!=G!2!=F | !3!E!1!=C !1!=F!2!_E | !0!D2 !1!C!2!=C | !2!B,2 !1!^A,!0!=A, | %65
 !3!G,E, !0!A,2 | G,E, A,2 | !3!C!0!A, !0!D2 | !1!C!0!A, !0!D!4!^A, | !1!B,!2!G, !0!A,!3!D | E,4 | %71
 x4 | x4 | E,4 | E,4 | !0!A,4 | !0!A,4 | !0!A,4 | A,4 | A,4 | x4 | z !0!!1![DAB] z !1![B,Af] | %82
 z !1![B,Ed] z !1!!3![E,dg] | z"^loco" !0!!1![A,Ec] z !1!!4![E,Gd] | z [A,Ec] z [E,Gd] | %85
 z [A,Ec] E,!3!C | z [A,Ec] E,C | A,4- | A,2 z2 |] %89
V:3
 !3!A,/ !2!B,/ !2!C/ !2!D/ !1!E/ !1!F/ !1!G/ !1!A/ | !1!G2 !1!F2 | !1!E (!2!C !2!B,) !3!A, | %3
 !2!C2 !2!B,2 | !3!A,/ !2!B,/ !2!C/ !2!D/ !1!E/ !1!F/ !1!G/ !1!A/ | !1!G2 !1!F2 | %6
 !1!E !2!C({!2!^B,(!2!C)!2!D)} !2!C3/2 !2!=B,/ | !2!B,2 !3!A, x | %8
 (!4!E,/ !4!F,/) !3!G,/ !3!A,/ !2!B,/ !2!C/ !2!D/ !1!E/ | !2!D2 !2!C2 | %10
 !3!G,/ !3!A,/ !2!B,/ !2!C/ !2!D/ !1!E/ !1!F/ !1!G/ | !1!F2 !1!E2 | %12
 ([!5!F,!3!^D!1!c]/ !1!B/) !2!A/ !2!G/{!2!x!2!x} T!2!F/ !1!E/ (!2!D/ !2!C/) | !2!B,2 !1!E2 | %14
 !4!F,2 !2!B,2 | !4!E,2- !4!E,/ !4!^E,/ !4!F,/ !3!G,/ | %16
 !3!A,/ !2!B,/ !2!C/ !2!D/ !1!E/ !1!F/ !1!G/ !1!A/ | !1!G2 !1!F2 | %18
 !1!E !2!C({!2!D!2!C)} !2!B, !3!A, | !2!C2 !2!B,2 | %20
 !3!A,/ !2!B,/ !2!C/ !2!D/ !1!E/ !1!F/ !1!=G/ !1!A/ | %21
 (!1!^E/ !1!F/) !1!^G/ !1!F/ !1!E/ !2!D/{!2!x!2!x} T!2!C/ !2!B,/ | !3!A,2 (!2!C3/2 !2!B,/) | %23
 !2!B,2 !3!A,2 | !2!B,/ !3!^A,/ (!2!C/ !2!B,/) (!3!=A,/ !3!G,/) !4!F,/ !4!E,/ | !2!C2 !3!A,2 | %26
 (!2!D/ !2!C/) !2!E/ !2!D/{!2!x!2!x} T!2!C/ !2!B,/ !3!A,/ !3!G,/ | !1!E2 !2!C2 | %28
 (!1!c/ !1!^B/) !1!^d/ !1!c/ (!1!=B/ !1!A/) !1!G/ !2!F/ | %29
 (!1!B/ !1!^A/) !1!c/ !1!B/ (!1!=A/ !1!G/) !2!F/ !2!E/ | %30
 !2!^D/ (!2!F/ !2!E/) !3!C/ (!3!B,/ !3!C/) !4!A,/ !4!F,/ | !4!F,2 !4!E,2 | %32
 !4!F,/ !4!G,/ !4!A,/ !3!B,/ !3!C/ !3!D/ !2!E/ !2!F/ | %33
 !3!G,/ !3!A,/ !2!B,/ !2!C/ !2!D/ !1!E/ !1!F/ !1!G/ | %34
 !3!A,/ !2!B,/ !2!C/ !2!D/ !1!E/ !1!F/ !1!G/ !1!A/ | %35
 !2!B,/ !2!C/ !2!D/ !1!E/ !3!F/ !2!G/ !2!A/ !2!B/ | %36
 !4!C/ !4!D/ !3!E/ !3!F/ !2!G/ !2!A/ !2!B/ !1!c/ | %37
 (!1!d/ !1!c/) !1!B/ !1!c/ (!1!d/ !1!c/) !1!d/ !1!c/ | %38
 (!1!d/ !1!c/) !1!B/ !1!c/ (!1!d/ !1!c/) !1!B/ !1!c/ | %39
 (!1!d/ !1!c/) !1!B/ !1!c/ (!1!B/ !1!A/) !1!G/ !1!A/ | %40
 (!1!G/ !1!F/) !2!^E/ !1!F/ !1!=E/ !2!D/ (!2!C/ !2!D/) | %41
 !2!C/ (!1!A/ !1!G/) !1!F/ !2!E/ !2!^D/ (!2!F/ !2!E/) | %42
 x/ (!1!d/ !1!B/) !2!G/ (!1!E/ !1!F/) !2!B,/ !1!E/ | %43
 !2!C/ (!1!A/ !1!G/) !1!F/ !2!E/ !2!^D/ (!2!F/ !2!E/) | %44
 x/ (!1!d/ !1!B/) !2!G/ (!1!E/ !1!F/) !2!B,/ !1!E/ | %45
 !3!C/ (!1!c/ !1!B/) !1!A/ (!1!G/ !1!A/) !1!B/ !1!A/ | %46
 (!1!G/ !1!F/) !1!A/ !1!G/ (!1!B/ !1!A/) !1!G/ !2!F/ | %47
{!2!x!2!x} T!2!E/ !2!^D/ !2!E/ !2!^E/ (!1!G/ !1!F/) !1!=E/ !2!=D/ | %48
 (!2!^B,/ !2!C/) !1!E/ !2!C/ (!3!^A,/ !3!=B,/) !2!D/ !2!B,/ | %49
 !3!A,/ (!1!A/ !1!G/) !1!F/ !2!E/ !2!^D/ (!2!F/ !2!E/) | %50
 x/ (!1!d/ !1!B/) !2!G/ (!1!E/ !1!F/) !2!B,/ !1!E/ | %51
 !2!C/ (!1!A/ !1!G/) !1!F/ !2!E/ !2!^D/ (!2!F/ !2!E/) | %52
 x/ (!1!d/ !1!B/) !2!G/ (!1!E/ !1!F/) !2!B,/ !1!E/ | %53
 !2!C/ (!3!G,/ !3!A,/) !2!B,/ !2!C/ !2!D/ !1!E/ !1!F/ | %54
 !1!=G/ (!1!F/ !1!E/) !2!D/ (!2!C/ !2!B,/) !3!A,/ !3!=G,/ | %55
 !4!F,/ !3!A,/ (!2!D/ !2!C/) !2!B,/ !3!=G,/ !4!F,/ !2!^D/ | %56
 !1!E/ !2!B,/ !4!E,/ !2!=D/ !2!C/ !3!A,/ !3!G,/ !1!^E/ | %57
 !1!F/ !2!C/ !4!F,/ !1!E/ (!2!D/ !2!B,/) !3!A,/ !1!F/ | %58
 !1!=G/ !2!D/ !3!B,/ !1!^G/ !1!A/ !2!E/ !3!C/ !1!^A/ | %59
 !1!B/ !2!F/ !2!E/ !1!c/ !1!d/ !2!A/ !2!F/ !1!^d/ | %60
 !1!e/ !3!E/ !2!B/ !1!d/{!1!x!1!x} T!1!c/ !2!B/ !1!c/ !2!A/ | %61
 !1!d/ !3!D/ !2!A/ !1!=c/{!1!x!1!x} T!1!B/ !2!A/ !1!B/ !2!=G/ | %62
 !1!=c/ !3!=C/ !1!=G/ !1!_B/{!1!x!1!x} T!1!A/ !1!G/ !1!A/ !2!=F/ | %63
 !1!_B/ !2!=F/ !1!^G/ !2!E/ !1!A/ !2!E/ !1!^F/ !2!D/ | %64
 !1!=G/ !2!D/ !1!^E/ !2!C/ !1!F/ !2!C/ !2!^D/ !2!B,/ | %65
 !1!E/ !2!B,/ !4!E,/ !2!D/ !2!C/ !3!A,/ !1!F/ [!3!=C!2!^D]/ | %66
 !1!E/ !2!B,/ !4!E,/ !2!D/ !2!C/ !3!A,/ !2!C/ !1!^E/ | %67
 !1!=G/ !1!E/ !4!A,/ !2!G/ !2!F/ !3!D/ !1!B/ [!3!=F!2!^G]/ | %68
 (!1!A/ !1!E/) !3!A,/ !1!=G/ !1!F/ !2!D/ !5!C,/ [!3!=G,!1!E]/ | %69
 x/ [!4!F,!2!^D]/ x/ [!4!=F,!2!=D]/ x/ [!4!E,!2!C]/ x/ [!4!^F,!2!B,]/ | %70
 !3!A,/ !4!E,/ (!2!C/ !2!B,/) !3!A,/ !2!C/ !1!F/ !2!^D/ | %71
 !1!E/ !2!C/ (!1!A/ !1!F/) !1!E/ !2!A/ !1!c/ !2!B/ | %72
 !2!A/ !1!c/ !1!f/ !1!^d/ !1!e/ !2!c/ !1!a/ !3!A/ | %73
 !1!c/ !2!G/{!1!x!1!x} T[!3!D!1!B]/ !2!G/ !2!^A/ !2!G/ [!3!D!1!B]/ !2!G/ | %74
 !1!c/ !2!G/ [!3!D!1!B]/ !2!G/ !1!d3/2 !1!c/ | !1!A3/2 !1!A/ !1!G3/2 !1!=G/ | %76
 !1!F3/2{!1!x!1!x} T!1!F/ !1!E3/2 !2!=D/ | !2!C/ !2!C/ !1!E/{!1!x!1!x} T!1!A/ !1!G3/2 !1!G/ | %78
 !1!F3/2 !1!F/ !1!E3/2 !2!D/ | !2!C/ !1!E/ !3!A,/ !2!B,/ !2!C/ !1!E/ !1!A/ !1!B/ | %80
 !1!c/ !1!B/ !2!A/ !2!F/ (!3!E/ !3!C/) !2!B,/ !3!A,/ | !1!F2 !1!d2 | !2!G2 !1!e2 | !1!A2 !1!E2 | %84
 !1!A2 !1!E2 | !1!A4 | !1!A4 | !1!A4- | !1!A2 !fermata!x2 |] %89
V:4
 !5!C,2 !5!A,,2 | x [!5!B,,!4!E,!2!D] x [!4!D,!3!G,!2!B,] | x [!5!A,,!4!E,] x [!6!F,,!4!^D,] | %3
 x [!6!E,,!4!E,!3!A,] x [!4!E,!3!G,] | !5!C,2 !5!A,,2 | x [!5!B,,!4!E,!2!D] x [!4!D,!3!G,!2!B,] | %6
 x [!5!A,,!4!E,] x [!6!E,,!4!D,!3!G,] | x [!5!A,,!4!D,!3!G,] !5!C, !5!A,, | !6!G,,2 !6!E,,2 | %9
 x [!6!E,,!4!E,!3!G,] x [!5!A,,!4!E,!3!A,] | !5!B,,2 !6!E,,2 | %11
 x [!5!A,,!3!G,!2!D] x [!5!A,,!3!A,!2!C] | x4 | x [!4!E,!3!G,] x [!5!C,!3!=G,!2!B,] | %14
 x [!6!B,,!5!E,] x [!5!A,,!4!^D,] | x [!6!G,,!2!B,!1!E] !6!E,,2 | !5!C,2 !5!A,,2 | %17
 x [!5!B,,!4!E,!2!D] x [!4!D,!3!G,!2!B,] | x [!5!A,,!4!E,] x [!6!F,,!4!^D,] | %19
 x [!6!E,,!4!E,!3!A,] x [!4!E,!3!G,] | !5!C,2 !5!A,,2 | !4!D,2 !4!F, !4!D, | %22
 x [!6!E,,!5!C,!4!E,] x [!6!E,,!4!D,!3!G,] | x [!5!A,,!4!D,!3!G,] !5!C, !5!A,, | !6!G,,2 !6!E,,2 | %25
 x [!5!A,,!4!E,] x [!5!C,!4!E,] | !5!B,,2 !4!D,2 | x [!5!C,!3!A,] x [!5!A,,!4!E,] | !4!A, x !3!C2 | %29
 !4!G,2 !3!B,2 | !4!F,2 !5!^D,2 | x [!6!E,,!3!A,!2!^D] x [!6!E,,!3!G,!1!E] | !5!D,2 !6!B,,2 | %33
 !4!E,2 !4!D,2 | !5!C,2 !5!A,,2 | !6!G,,2 !6!E,,2 | !5!A,,2 !6!E,,2 | !5!E,2 !5!^E,2 | %38
 !5!F,2 !3!^^F,2 | !4!G,2 !6!E,,2 | !6!F,,2 !6!G,,2 | !5!A,,2 !5!C,2 | !6!B,,2 !6!E,,2 | %43
 !5!A,,2 !5!C,2 | !6!B,,2 !6!E,,2 | !5!A,,2 !5!C,2 | !4!D,2 !4!F,2 | !5!C,2 !4!D,2 | %48
 !4!E,2 !6!E,,2 | !5!A,,2 !5!C,2 | !6!B,,2 !6!E,,2 | !5!A,,2 !5!C,2 | !6!B,,2 !6!E,,2 | %53
 !5!A,,2 !4!E,2 | !5!C,2 !5!A,,2 | !5!D, !6!F,, !6!=G,, !5!A,, | !6!=G,, !6!^G,, !5!A,, !5!B,, | %57
 !5!A,, !5!^A,, !5!B,, !5!=C, | !5!B,, !5!D, !5!C, !5!E, | !5!D, !4!=G, !5!F, !4!A, | %60
 !5!G, !6!E,, !5!A,, !3!=G, | !5!F, !4!D, !3!=G, !5!=F, | !5!E, !5!=C, !4!=F, !5!_E, | %63
 !4!D,2 !5!C, !5!=C, | !5!B,,2 !5!^A,, !5!=A,, | !6!G,, !6!E,, !5!A,,2 | !6!G,, !6!E,, !5!A,,2 | %67
 !5!C, !5!A,, !4!D,2 | !5!C, !5!A,, !4!D, !6!^A,, | !5!B,, !6!G,, !5!A,, !5!D, | !6!E,,4 | x4 | %72
 x4 | !6!E,,4 | !6!E,,4 | !5!A,,4 | !5!A,,4 | !5!A,,4 | !5!A,,4 | !5!A,,4 | x4 | %81
 x [!4!D,!3!A,!2!B,] x [!6!B,,!4!A,!2!F] | x [!6!B,,!5!E,!3!D] x [!6!E,,!4!D!3!G] | %83
 x [!5!A,,!4!E,!2!C] x [!6!E,,!3!G,!2!D] | x [!5!A,,!4!E,!2!C] x [!6!E,,!3!G,!2!D] | %85
 x [!5!A,,!4!E,!2!C] !6!E,, !5!C, | x [!5!A,,!4!E,!2!C] !6!E,, !5!C, | !5!A,,4- | !5!A,,2 x2 |] %89
V:5
 x4 | x4 | x4 | x4 | x4 | x4 | x4 | x4 | x4 | x4 | x4 | x4 | x4 | x4 | x4 | x4 | x4 | x4 | x4 | %19
 x4 | x4 | x4 | x4 | x4 | x4 | x4 | x4 | x4 | x4 | x4 | x4 | x4 | x4 | x4 | x4 | x4 | x4 | x4 | %38
 x4 | x4 | x4 | x4 | x4 | x4 | x4 | x4 | x4 | x4 | x4 | x4 | x4 | x4 | x4 | x4 | x4 | x4 | x4 | %57
 x4 | x4 | x4 | x4 | x4 | x4 | x4 | x4 | x4 | x4 | x4 | x4 | x4 | x4 | x4 | x4 | x4 | %74
 x2 z/ !3!g/!1!d | z/ !2!c/!1!e z/ !2!B/!1!d | z/ !1!A/!2!d z/ !1!G/!0!B/!2!E/ | %77
 x2 z/ !2!B/!1!d/!1!_B/ | z/ A/d z/ G/B/E/ | x4 | x4 | x4 | x4 | x4 | x4 | x4 | x4 | c4- | c2 z2 |] %89
V:6
 x4 | x4 | x4 | x4 | x4 | x4 | x4 | x4 | x4 | x4 | x4 | x4 | x4 | x4 | x4 | x4 | x4 | x4 | x4 | %19
 x4 | x4 | x4 | x4 | x4 | x4 | x4 | x4 | x4 | x4 | x4 | x4 | x4 | x4 | x4 | x4 | x4 | x4 | x4 | %38
 x4 | x4 | x4 | x4 | x4 | x4 | x4 | x4 | x4 | x4 | x4 | x4 | x4 | x4 | x4 | x4 | x4 | x4 | x4 | %57
 x4 | x4 | x4 | x4 | x4 | x4 | x4 | x4 | x4 | x4 | x4 | x4 | x4 | x4 | x4 | x4 | x4 | %74
 x2 x/ !2!G/ !3!D | x/ !3!C/ !2!E x/ !3!B,/ !2!D | x/ !3!A,/ !2!D x/ !3!G,/ !2!B,/ !4!E,/ | %77
 x2 x/ !3!B,/ !2!D/ !3!_B,/ | x/ !3!A,/ !2!D x/ !3!G,/ !2!B,/ !4!E,/ | x4 | x4 | x4 | x4 | x4 | %84
 x4 | x4 | x4 | !2!C4- | !2!C2 x2 |] %89
V:7
 x4 | x4 | x4 | x4 | x4 | x4 | x4 | x4 | x4 | x4 | x4 | x4 | x4 | x4 | x4 | x4 | x4 | x4 | x4 | %19
 x4 | x4 | x4 | x4 | x4 | x4 | x4 | x4 | x4 | x4 | x4 | x4 | x4 | x4 | x4 | x4 | x4 | x4 | x4 | %38
 x4 | x4 | x4 | x4 | x4 | x4 | x4 | x4 | x4 | x4 | x4 | x4 | x4 | x4 | x4 | x4 | x4 | x4 | x4 | %57
 x4 | x4 | x4 | x4 | x4 | x4 | x4 | x4 | x4 | x4 | x4 | x4 | x4 | x4 | x4 | x4 | x4 | x4 | x4 | %76
 x4 | x4 | x4 | x4 | x4 | x4 | x4 | x4 | x4 | x4 | x4 | E4- | E2 z2 |] %89
V:8
 x4 | x4 | x4 | x4 | x4 | x4 | x4 | x4 | x4 | x4 | x4 | x4 | x4 | x4 | x4 | x4 | x4 | x4 | x4 | %19
 x4 | x4 | x4 | x4 | x4 | x4 | x4 | x4 | x4 | x4 | x4 | x4 | x4 | x4 | x4 | x4 | x4 | x4 | x4 | %38
 x4 | x4 | x4 | x4 | x4 | x4 | x4 | x4 | x4 | x4 | x4 | x4 | x4 | x4 | x4 | x4 | x4 | x4 | x4 | %57
 x4 | x4 | x4 | x4 | x4 | x4 | x4 | x4 | x4 | x4 | x4 | x4 | x4 | x4 | x4 | x4 | x4 | x4 | x4 | %76
 x4 | x4 | x4 | x4 | x4 | x4 | x4 | x4 | x4 | x4 | x4 | !4!E,4- | !4!E,2 x2 |] %89

